poi/svg/2608.svg

<?xml version="1.0" encoding="UTF-8" standalone="no"?>
<svg
   xmlns:dc="http://purl.org/dc/elements/1.1/"
   xmlns:cc="http://creativecommons.org/ns#"
   xmlns:rdf="http://www.w3.org/1999/02/22-rdf-syntax-ns#"
   xmlns:svg="http://www.w3.org/2000/svg"
   xmlns="http://www.w3.org/2000/svg"
   xmlns:sodipodi="http://sodipodi.sourceforge.net/DTD/sodipodi-0.dtd"
   xmlns:inkscape="http://www.inkscape.org/namespaces/inkscape"
   inkscape:version="1.0 (4035a4fb49, 2020-05-01)"
   sodipodi:docname="2608.svg"
   id="svg20"
   version="1.2"
   viewBox="0 0 42.519639 42.519639"
   height="14.999999mm"
   width="14.999999mm">
  <metadata
     id="metadata24">
    <rdf:RDF>
      <cc:Work
         rdf:about="">
        <dc:format>image/svg+xml</dc:format>
        <dc:type
           rdf:resource="http://purl.org/dc/dcmitype/StillImage" />
        <dc:title>Qt SVG Document</dc:title>
      </cc:Work>
    </rdf:RDF>
  </metadata>
  <sodipodi:namedview
     inkscape:current-layer="svg20"
     inkscape:window-maximized="0"
     inkscape:window-y="0"
     inkscape:window-x="0"
     inkscape:cy="28.346482"
     inkscape:cx="28.346482"
     inkscape:zoom="5.8410537"
     showgrid="false"
     id="namedview22"
     inkscape:window-height="480"
     inkscape:window-width="1034"
     inkscape:pageshadow="2"
     inkscape:pageopacity="0"
     guidetolerance="10"
     gridtolerance="10"
     objecttolerance="10"
     borderopacity="1"
     bordercolor="#666666"
     pagecolor="#ffffff" />
  <title
     id="title2">Qt SVG Document</title>
  <desc
     id="desc4">Generated with Qt</desc>
  <defs
     id="defs6" />
  <g
     transform="translate(5.25984,5.25984)"
     id="g18"
     stroke-linejoin="bevel"
     stroke-linecap="square"
     fill-rule="evenodd"
     stroke-width="1"
     stroke="#000000"
     fill="none">
    <g
       id="g10"
       font-style="normal"
       font-weight="400"
       font-size="7.8px"
       font-family="'MS Shell Dlg 2'"
       stroke="none"
       fill-opacity="1"
       fill="#6fa56c">
      <path
         id="path8"
         d="M 37.2598,16 C 37.2598,27.7415 27.7415,37.2598 16,37.2598 4.25851,37.2598 -5.25984,27.7415 -5.25984,16 -5.25984,4.25851 4.25851,-5.25984 16,-5.25984 27.7415,-5.25984 37.2598,4.25851 37.2598,16"
         fill-rule="evenodd"
         vector-effect="non-scaling-stroke" />
    </g>
    <g
       id="g14"
       font-style="normal"
       font-weight="400"
       font-size="7.8px"
       font-family="'MS Shell Dlg 2'"
       transform="translate(16,12.0315)"
       stroke="none"
       fill-opacity="0.94902"
       fill="#ffffff">
      <path
         id="path12"
         d="M 4.82031,-4.05762 C 4.19043,-4.11361 3.66903,-4.35156 3.2561,-4.77148 2.84318,-5.19141 2.63672,-5.71631 2.63672,-6.34619 c 0,-0.60189 0.22046,-1.13029 0.66138,-1.58521 0.44091,-0.45491 0.97631,-0.65437 1.6062,-0.59839 0.62988,0 1.15478,0.22746 1.5747,0.68238 0.41993,0.45491 0.62989,0.98331 0.62989,1.5852 0,0.62989 -0.22396,1.15479 -0.67188,1.57471 -0.44791,0.41992 -0.98681,0.62988 -1.6167,0.62988 M -8.47021,0.225586 C -8.75016,0.295573 -9.01261,0.243083 -9.25757,0.0681152 -9.50252,-0.106852 -9.65299,-0.33431 -9.70898,-0.614258 c -0.05599,-0.349935 0,-0.647382 0.16796,-0.892332 0.16797,-0.24496 0.39893,-0.39543 0.69288,-0.45142 L 1.98584,-4.22559 c 0.08398,-0.06998 0.16797,-0.10498 0.25195,-0.10498 0.08399,0 0.15397,0 0.20996,0 0.43392,0.06999 0.82235,0.22396 1.16529,0.46192 0.34293,0.23795 0.59139,0.55989 0.74536,0.96582 0,0.08398 0.014,0.13997 0.04199,0.16797 0,0.02799 0.014,0.05599 0.04199,0.08398 0.05599,0.15397 0.07699,0.38843 0.06299,0.70337 -0.014,0.31494 -0.16797,0.68237 -0.46191,1.102295 C 3.98747,-0.733236 3.795,-0.411296 3.46606,0.120605 3.13713,0.652507 2.76969,1.2334 2.36377,1.86328 1.91585,2.61914 1.40495,3.42399 0.831055,4.27783 1.27897,4.79574 1.71989,5.27165 2.15381,5.70557 c 0.37793,0.39192 0.73836,0.76635 1.0813,1.12329 0.34293,0.35693 0.61238,0.62638 0.80835,0.80835 0.20996,0.22396 0.34293,0.43742 0.39892,0.64038 0.05599,0.20296 0.09798,0.37443 0.12598,0.5144 0,0.16797 -0.014,0.34294 -0.04199,0.5249 L 3.58154,12.8442 5.68115,14.083 c 0.08399,0.056 0.17147,0.119 0.26245,0.189 0.09099,0.07 0.13648,0.1609 0.13648,0.2729 -0.06999,0.154 -0.15397,0.287 -0.25195,0.3989 -0.09799,0.112 -0.24496,0.168 -0.44092,0.168 L 0.432129,15.0278 1.85986,9.90479 -2.86426,5.60059 C -3.1582,5.37663 -3.40666,5.11418 -3.60962,4.81323 -3.81258,4.51229 -3.88607,4.14486 -3.83008,3.71094 c 0,-0.13998 0.0175,-0.29395 0.05249,-0.46192 0.035,-0.16797 0.08049,-0.32894 0.13648,-0.48291 L -0.974609,-1.39111 -8.47021,0.225586 M 10.0273,1.44336 c 0.308,0 0.5634,0.11548 0.7664,0.34643 0.203,0.23096 0.3044,0.50041 0.3044,0.80835 0,0.32194 -0.1084,0.5879 -0.3254,0.79786 -0.217,0.20996 -0.4934,0.28694 -0.82934,0.23095 L 5.38721,3.54297 c -0.32194,0 -0.51091,-0.06999 -0.5669,-0.20996 H 4.73633 C 4.56836,3.22103 4.44238,3.06006 4.3584,2.8501 L 3.66553,1.35938 C 3.86149,1.12142 4.06795,0.830973 4.28491,0.488037 4.50187,0.145101 4.70833,-0.166341 4.9043,-0.446289 5.01628,-0.684245 5.12126,-0.845215 5.21924,-0.929199 L 6.16406,1.35938 10.0273,1.44336 m -14.23531,3.7793 c 0.05599,0.32194 0.17847,0.55989 0.36743,0.71386 0.18897,0.15397 0.38143,0.32894 0.5774,0.52491 l 0.86084,0.77685 -3.69532,5.77392 1.42774,1.8057 c 0.05599,0.056 0.10498,0.1189 0.14697,0.1889 0.04199,0.07 0.06299,0.133 0.06299,0.189 0,0.21 -0.06649,0.3569 -0.19946,0.4409 -0.13298,0.084 -0.26945,0.126 -0.40943,0.126 H -5.3208 L -9.87695,14.251 -4.20801,5.22266 m -6.06789,9.42724 7.22268,2.4355 c -0.22396,0.126 -0.48291,0.231 -0.77686,0.315 -0.22396,0.056 -0.5074,0.091 -0.85034,0.105 -0.34294,0.014 -0.71737,-0.049 -1.12329,-0.189 -0.39193,-0.154 -0.88184,-0.3289 -1.46973,-0.5249 -0.58789,-0.196 -1.16878,-0.3989 -1.74267,-0.6089 -0.65788,-0.2239 -1.33679,-0.4479 -2.03659,-0.6719 l 0.7768,-0.8608 m 10.54006,0.8608 7.62158,0.084 c -0.18196,0.196 -0.38493,0.364 -0.60888,0.5039 -0.23796,0.14 -0.50741,0.2625 -0.80835,0.3675 -0.30095,0.1049 -0.66138,0.1574 -1.0813,0.1574 -0.43392,0 -0.96582,0 -1.59571,0 -0.62988,0 -1.23177,-0.014 -1.80566,-0.042 -0.68587,0 -1.385742,-0.014 -2.09961,-0.0419 l 0.37793,-1.0289"
         fill-rule="evenodd"
         vector-effect="none" />
    </g>
    <g
       id="g16"
       font-style="normal"
       font-weight="400"
       font-size="7.8px"
       font-family="'MS Shell Dlg 2'"
       stroke="none"
       fill-opacity="1"
       fill="#6fa56c" />
  </g>
</svg>

<?xml version="1.0" encoding="UTF-8" standalone="no"?>
<svg width="11.2889mm" height="11.2889mm"
 viewBox="0 0 32 32"
 xmlns="http://www.w3.org/2000/svg" xmlns:xlink="http://www.w3.org/1999/xlink"  version="1.2" baseProfile="tiny">
<title>Qt SVG Document</title>
<desc>Generated with Qt</desc>
<defs>
</defs>
<g fill="none" stroke="black" stroke-width="1" fill-rule="evenodd" stroke-linecap="square" stroke-linejoin="bevel" >

<g fill="#6fa56c" fill-opacity="1" stroke="none" transform="matrix(1,0,0,1,0,0)"
font-family="MS Shell Dlg 2" font-size="7.8" font-weight="400" font-style="normal" 
>
<path vector-effect="non-scaling-stroke" fill-rule="evenodd" d="M37.2598,16 C37.2598,27.7415 27.7415,37.2598 16,37.2598 C4.25851,37.2598 -5.25984,27.7415 -5.25984,16 C-5.25984,4.25851 4.25851,-5.25984 16,-5.25984 C27.7415,-5.25984 37.2598,4.25851 37.2598,16 "/>
</g>

<g fill="#ffffff" fill-opacity="0.94902" stroke="none" transform="matrix(1,0,0,1,16,12.0315)"
font-family="MS Shell Dlg 2" font-size="7.8" font-weight="400" font-style="normal" 
>
<path vector-effect="none" fill-rule="evenodd" d="M4.82031,-4.05762 C4.19043,-4.11361 3.66903,-4.35156 3.2561,-4.77148 C2.84318,-5.19141 2.63672,-5.71631 2.63672,-6.34619 C2.63672,-6.94808 2.85718,-7.47648 3.2981,-7.9314 C3.73901,-8.38631 4.27441,-8.58577 4.9043,-8.52979 C5.53418,-8.52979 6.05908,-8.30233 6.479,-7.84741 C6.89893,-7.3925 7.10889,-6.8641 7.10889,-6.26221 C7.10889,-5.63232 6.88493,-5.10742 6.43701,-4.6875 C5.9891,-4.26758 5.4502,-4.05762 4.82031,-4.05762 M-8.47021,0.225586 C-8.75016,0.295573 -9.01261,0.243083 -9.25757,0.0681152 C-9.50252,-0.106852 -9.65299,-0.33431 -9.70898,-0.614258 C-9.76497,-0.964193 -9.70898,-1.26164 -9.54102,-1.50659 C-9.37305,-1.75155 -9.14209,-1.90202 -8.84814,-1.95801 L1.98584,-4.22559 C2.06982,-4.29557 2.15381,-4.33057 2.23779,-4.33057 C2.32178,-4.33057 2.39176,-4.33057 2.44775,-4.33057 C2.88167,-4.26058 3.2701,-4.10661 3.61304,-3.86865 C3.95597,-3.6307 4.20443,-3.30876 4.3584,-2.90283 C4.3584,-2.81885 4.3724,-2.76286 4.40039,-2.73486 C4.40039,-2.70687 4.41439,-2.67887 4.44238,-2.65088 C4.49837,-2.49691 4.51937,-2.26245 4.50537,-1.94751 C4.49137,-1.63257 4.3374,-1.26514 4.04346,-0.845215 C3.98747,-0.733236 3.795,-0.411296 3.46606,0.120605 C3.13713,0.652507 2.76969,1.2334 2.36377,1.86328 C1.91585,2.61914 1.40495,3.42399 0.831055,4.27783 C1.27897,4.79574 1.71989,5.27165 2.15381,5.70557 C2.53174,6.09749 2.89217,6.47192 3.23511,6.82886 C3.57804,7.18579 3.84749,7.45524 4.04346,7.63721 C4.25342,7.86117 4.38639,8.07463 4.44238,8.27759 C4.49837,8.48055 4.54036,8.65202 4.56836,8.79199 C4.56836,8.95996 4.55436,9.13493 4.52637,9.31689 L3.58154,12.8442 L5.68115,14.083 C5.76514,14.139 5.85262,14.202 5.9436,14.272 C6.03459,14.342 6.08008,14.4329 6.08008,14.5449 C6.01009,14.6989 5.92611,14.8319 5.82813,14.9438 C5.73014,15.0558 5.58317,15.1118 5.38721,15.1118 L0.432129,15.0278 L1.85986,9.90479 L-2.86426,5.60059 C-3.1582,5.37663 -3.40666,5.11418 -3.60962,4.81323 C-3.81258,4.51229 -3.88607,4.14486 -3.83008,3.71094 C-3.83008,3.57096 -3.81258,3.41699 -3.77759,3.24902 C-3.74259,3.08105 -3.6971,2.92008 -3.64111,2.76611 L-0.974609,-1.39111 L-8.47021,0.225586 M10.0273,1.44336 C10.3353,1.44336 10.5907,1.55884 10.7937,1.78979 C10.9967,2.02075 11.0981,2.2902 11.0981,2.59814 C11.0981,2.92008 10.9897,3.18604 10.7727,3.396 C10.5557,3.60596 10.2793,3.68294 9.94336,3.62695 L5.38721,3.54297 C5.06527,3.54297 4.8763,3.47298 4.82031,3.33301 L4.73633,3.33301 C4.56836,3.22103 4.44238,3.06006 4.3584,2.8501 L3.66553,1.35938 C3.86149,1.12142 4.06795,0.830973 4.28491,0.488037 C4.50187,0.145101 4.70833,-0.166341 4.9043,-0.446289 C5.01628,-0.684245 5.12126,-0.845215 5.21924,-0.929199 L6.16406,1.35938 L10.0273,1.44336 M-4.20801,5.22266 C-4.15202,5.5446 -4.02954,5.78255 -3.84058,5.93652 C-3.65161,6.09049 -3.45915,6.26546 -3.26318,6.46143 L-2.40234,7.23828 L-6.09766,13.0122 L-4.66992,14.8179 C-4.61393,14.8739 -4.56494,14.9368 -4.52295,15.0068 C-4.48096,15.0768 -4.45996,15.1398 -4.45996,15.1958 C-4.45996,15.4058 -4.52645,15.5527 -4.65942,15.6367 C-4.7924,15.7207 -4.92887,15.7627 -5.06885,15.7627 L-5.3208,15.7627 L-9.87695,14.251 L-4.20801,5.22266 M-10.2759,14.6499 L-3.05322,17.0854 C-3.27718,17.2114 -3.53613,17.3164 -3.83008,17.4004 C-4.05404,17.4564 -4.33748,17.4914 -4.68042,17.5054 C-5.02336,17.5194 -5.39779,17.4564 -5.80371,17.3164 C-6.19564,17.1624 -6.68555,16.9875 -7.27344,16.7915 C-7.86133,16.5955 -8.44222,16.3926 -9.01611,16.1826 C-9.67399,15.9587 -10.3529,15.7347 -11.0527,15.5107 L-10.2759,14.6499 M0.26416,15.5107 L7.88574,15.5947 C7.70378,15.7907 7.50081,15.9587 7.27686,16.0986 C7.0389,16.2386 6.76945,16.3611 6.46851,16.4661 C6.16756,16.571 5.80713,16.6235 5.38721,16.6235 C4.95329,16.6235 4.42139,16.6235 3.7915,16.6235 C3.16162,16.6235 2.55973,16.6095 1.98584,16.5815 C1.29997,16.5815 0.600098,16.5675 -0.11377,16.5396 L0.26416,15.5107"/>
</g>

<g fill="#6fa56c" fill-opacity="1" stroke="none" transform="matrix(1,0,0,1,0,0)"
font-family="MS Shell Dlg 2" font-size="7.8" font-weight="400" font-style="normal" 
>
</g>
</g>
</svg>
